!!!COM: Palestrina, Giovanni Perluigi da
!!!OPR: Nasce la gioia mia
!!!OTL: Agnus I
**kern	**kern	**kern	**kern	**kern	**kern
*Ibass	*Itenor	*Itenor	*Icalto	*Icant	*Icant
!Bassus	!Tenor 2	!Tenor 1	!Altus	!Cantus 2	!Cantus 1
*clefF4	*clefGv2	*clefGv2	*clefG2	*clefG2	*clefG2
*k[b-]	*k[b-]	*k[b-]	*k[b-]	*k[b-]	*k[b-]
*G:dor	*G:dor	*G:dor	*G:dor	*G:dor	*G:dor
*M4/2	*M4/2	*M4/2	*M4/2	*M4/2	*M4/2
=1	=1	=1	=1	=1	=1
1G	0r	1r	0r	0r	0r
2G	.	1d	.	.	.
[2B-	.	.	.	.	.
=2	=2	=2	=2	=2	=2
2B-]	1G	2d	0r	0r	0r
2G	.	1B-	.	.	.
2.B-	2G	.	.	.	.
.	[2B-	2G	.	.	.
4c	.	.	.	.	.
=3	=3	=3	=3	=3	=3
1d	2B-]	2.B-	1r	0r	0r
.	2G	.	.	.	.
.	.	4c	.	.	.
[1G	2.B-	2d	1d	.	.
.	.	[2B-	.	.	.
.	4c	.	.	.	.
=4	=4	=4	=4	=4	=4
2G]	2.d	2B-]	2d	0r	0r
4F	.	4A	1f	.	.
4E	4c	4G	.	.	.
1D	4d	1A	.	.	.
.	4e	.	.	.	.
.	[2f	.	2d	.	.
=5	=5	=5	=5	=5	=5
1B-	4f]	4d	2.f	0r	0r
.	4e	4e	.	.	.
.	1d	4f	.	.	.
.	.	4d	4g	.	.
2.A	.	1e	4a	.	.
.	.	.	4b-	.	.
.	2c#	.	[2a	.	.
4G	.	.	.	.	.
=6	=6	=6	=6	=6	=6
2F#	2d	1d	2a]	0r	1r
2G	2B-	.	1g	.	.
1D	1A	2r	.	.	1dd
.	.	[2d	2f	.	.
=7	=7	=7	=7	=7	=7
2.G	[0G	2d]	2b-	1g	2dd
.	.	2d	2g	.	1b-
4F	.	.	.	.	.
[1E-	.	[1e-	2.b-	2g	.
.	.	.	.	[2b-	2g
.	.	.	4a	.	.
=8	=8	=8	=8	=8	=8
1E-]	1G]	1e-]	1g	2b-]	2.b-
.	.	.	.	2g	.
.	.	.	.	.	4cc
[1BB-	2r	1d	[1f	2.b-	1dd
.	2d	.	.	.	.
.	.	.	.	4cc	.
=9	=9	=9	=9	=9	=9
1BB-]	2d	0r	2f]	2.dd	2.ff
.	1B-	.	2d	.	.
.	.	.	.	4cc	4ee-
1r	.	.	2f	4b-	[1dd
.	.	.	.	4a	.
.	2G	.	2g	[2b-	.
=10	=10	=10	=10	=10	=10
0r	2.B-	1r	1d	4b-]	2dd]
.	.	.	.	4a	.
.	.	.	.	1g	2b-
.	4c	.	.	.	.
.	1d	2r	2r	.	2a
.	.	2d	2a	2f#	[2dd
=11	=11	=11	=11	=11	=11
2r	[0G	2d	4b-	1g	2dd]
.	.	.	4a	.	.
2G	.	2B-	4g	.	2dd
.	.	.	4f#	.	.
2G	.	2G	1g	1r	1b-
[2E-	.	2B-	.	.	.
=12	=12	=12	=12	=12	=12
2E-]	1G]	2B-	2.e-	2r	2g
2C	.	2c	.	1g	2.gg
.	.	.	8d	.	.
.	.	.	8c	.	.
2.E-	2r	[1G	2B-	.	.
.	.	.	.	.	4ff
.	[2g	.	[2G	2g	2ee-
4F	.	.	.	.	.
=13	=13	=13	=13	=13	=13
0G	4g]	1G]	2G]	2b-	2dd
.	4f	.	.	.	.
.	2e-	.	2.g	2cc	1cc
.	1d	1r	.	2dd	.
.	.	.	4f	.	.
.	.	.	2d	2g	2b
=14	=14	=14	=14	=14	=14
0C	1c	2r	0e	2g	1cc
.	.	2c	.	2g	.
.	1g	2c	.	2.cc	2r
.	.	2c	.	.	2cc
.	.	.	.	4b-	.
=15	=15	=15	=15	=15	=15
0r	0r	2f	0r	2a	2cc
.	.	2e	.	2g	2cc
.	.	2d	.	4a	2ff
.	.	.	.	4b	.
.	.	2c	.	4cc	2ee
.	.	.	.	4a	.
=16	=16	=16	=16	=16	=16
0r	1G	0g	1r	2b	2dd
.	.	.	.	1cc	2ee
.	2G	.	2r	.	1dd
.	2G	.	2g	2b	.
=17	=17	=17	=17	=17	=17
0r	1c	2.e	2g	2cc	1cc
.	.	.	2g	1c	.
.	.	4d	.	.	.
.	2A	4e	2cc	.	1r
.	.	4f	.	.	.
.	2G	[2g	4b-	2d	.
.	.	.	4a	.	.
=18	=18	=18	=18	=18	=18
1C	0c	2g]	2g	2e	1r
.	.	1f	2a	2f	.
2C	.	.	1g	1g	1cc
2C	.	2e	.	.	.
=19	=19	=19	=19	=19	=19
1F	1c	2f	2f	1a	2cc
.	.	4F	2c	.	2cc
.	.	4G	.	.	.
2D	2r	4A	2d	1r	2ff
.	.	4B-	.	.	.
2C	2c	2c	2e	.	2ee
=20	=20	=20	=20	=20	=20
0G	2d	2B	1g	2r	2dd
.	2e	2c	.	2.g	1cc
.	1d	2d	1g	.	.
.	.	.	.	4f	.
.	.	[2G	.	2d	2b
=21	=21	=21	=21	=21	=21
0C	0c	2G]	2r	2e	1cc
.	.	1g	1e	2c	.
.	.	.	.	1g	1r
.	.	2e	2g	.	.
=22	=22	=22	=22	=22	=22
0r	2r	2f	2.a	0r	1.cc
.	1A	4e	.	.	.
.	.	4d	8g	.	.
.	.	.	8f	.	.
.	.	1c	2e	.	.
.	2A	.	2f#	.	2a
=23	=23	=23	=23	=23	=23
0r	1G	1d	1g	1r	1b-
.	2.A	2c	1e	[1cc	4a
.	.	.	.	.	4b
.	.	2A	.	.	4cc
.	4B	.	.	.	4dd
=24	=24	=24	=24	=24	=24
0r	2c	2.a	0r	2cc]	4ee
.	.	.	.	.	4cc
.	2d	.	.	2a	2ff
.	.	4a	.	.	.
.	1G	2g	.	1b-	4ee
.	.	.	.	.	4dd
.	.	2f	.	.	[2dd
=25	=25	=25	=25	=25	=25
1r	1A	1e	1r	1a	2dd]
.	.	.	.	.	2cc#
[1D	2r	[1d	2r	2.f	[1dd
.	[2d	.	[2f	.	.
.	.	.	.	4g	.
=26	=26	=26	=26	=26	=26
2D]	2d]	1d]	2f]	2a	1dd]
2D	2f	.	2d	2b	.
1C	1g	2.G	1e-	1cc	1r
.	.	4A	.	.	.
=27	=27	=27	=27	=27	=27
2.D	2.f	4B-	2.d	2b-	2r
.	.	4c	.	.	.
.	.	1d	.	2.a	1ff
4E	4e	.	8c	.	.
.	.	.	8B-	.	.
2F	1d	.	2A	.	.
.	.	.	.	8g	.
.	.	.	.	8a	.
2G	.	2B-	[2G	2b-	2dd
=28	=28	=28	=28	=28	=28
1C	2c	2.c	2G]	1g	1ee-
.	2G	.	1g	.	.
.	.	4B-	.	.	.
1D	2r	1A	.	1r	1dd
.	[2d	.	2f#	.	.
=29	=29	=29	=29	=29	=29
2r	2d]	1G	2g	0r	2.b-
1G	2d	.	1b-	.	.
.	.	.	.	.	4cc
.	1B-	2r	.	.	2dd
2G	.	2B-	2g	.	2ee
=30	=30	=30	=30	=30	=30
1F	2c	1A	1a	1r	1ff
.	2.d	.	.	.	.
2.G	.	2.B-	[1g	2r	1dd
.	4c	.	.	.	.
.	4B-	.	.	[2b-	.
4A	4A	4c	.	.	.
=31	=31	=31	=31	=31	=31
2B-	2G	2d	1g]	2b-]	2r
2c	2c	2e	.	2g	1cc
1F	1r	2f	2.f	1a	.
.	.	2c	.	.	2a
.	.	.	4e	.	.
=32	=32	=32	=32	=32	=32
1G	0r	1r	4d	2.g	1b-
.	.	.	4c	.	.
.	.	.	1d	.	.
.	.	.	.	4f	.
1A	.	2r	.	1e	1a
.	.	2e	2c#	.	.
=33	=33	=33	=33	=33	=33
0D	2r	2f	1d	4d	2r
.	.	.	.	4e	.
.	1d	4d	.	4f	1ff
.	.	4e	.	4g	.
.	.	4f	1r	2a	.
.	.	4g	.	.	.
.	2d	[2a	.	2f	2dd
=34	=34	=34	=34	=34	=34
1r	1c	2a]	1r	1cc	1ee-
.	.	2g	.	.	.
[1D	1d	1f	2r	2b-	[1dd
.	.	.	[2f	2a	.
=35	=35	=35	=35	=35	=35
2D]	2.A	1F	2f]	2d	1dd]
2D	.	.	2d	2.a	.
.	4B	.	.	.	.
1C	1c	2.G	1e-	.	1g
.	.	.	.	4g	.
.	.	.	.	[2g	.
.	.	4A	.	.	.
=36	=36	=36	=36	=36	=36
1D	2B-	4B-	1d	2g]	[0dd
.	.	4c	.	.	.
.	4A	2.d	.	4f	.
.	4G	.	.	4e	.
1D	1A	.	1d	1f#	.
.	.	4c	.	.	.
.	.	2A	.	.	.
=37	=37	=37	=37	=37	=37
0G	0G	0B	0d	0g	0dd]
==	==	==	==	==	==
*-	*-	*-	*-	*-	*-
!!!CDT: 1525/^1526/-1594/2/2
!!!OCY: Italia
!!!AGN: Mass (Parody)
!!!AST: renaissance, vocal
!!!ASW: Madrigal 1565 (Primavera)
!!!PWK: Masses, Book 5
!!!RNB: Cadence finals: D
!!!YOR: Le Opere Complete, v. 15, p. 161
!!!YOO: Rome, Italy: Fratelli Scalera
!!!END: 1992//
!!!EED: John Miller
!!!YEC: Copyright 2000, John Miller
!!!YEN: United States of America
!!!YEM: Rights to all derivative electronic formats reserved.
!!!YEM: Refer to licensing agreement for further details.
!!!YEM: This file must be accompanied by the licensing agreement.
!!!YEM: A copy of the licensing agreement may be found at http://www.music-cog.ohio-state.edu/HumdrumDatabases/Palestrina/license.txt
!!!EMD: converted to Humdrum by Bret Aarden
